X:54
T:Francie Quinn's* (slip jig)
B:NFID.185b ("untitled slip jig")
054fran_q
S:DOD
L:1/8
M:9/8
R:slip jig
Q:320
K:A
c2A ABA ecA|cec aec fga|c2A ABA ecA|BcB fdB Bcd:|
cde aec aec|c/d/ec aec fga|cec aec aec|BcB fdB Bcd:|

%%%

